X: 4
T:Difyrrwch Gwyr Dufi
T:The Delight of the Men of Dovey
M:6/8
L:1/8
Q:130
C:Trad
S:Cat's Claw
R:Jig
A:Wales
Z:brian_martin12345@yahoo.com
K:G
(E/F/)|GAB BcB|cAA A2(G/F/)|GAB cAB|GEEE2(E/F/)|!
GAB BcB|cAA A2(G/F/)|GAB cAB|GEEE2(e/f/)|ggg fff|eged2d|!
ede gfe|dBBB2(B/c/)|ded dcB|cAA A2(G/F/)|GAB cAB|GEEE2||
